24x24/panel/mnotify-some-wireframe.svg

<svg xmlns="http://www.w3.org/2000/svg" width="24" height="24" version="1.1">
 <defs>
  <style id="current-color-scheme" type="text/css">
   .ColorScheme-Text { color:#323a41; } .ColorScheme-Highlight { color:#4285f4; } .ColorScheme-NeutralText { color:#ff9800; } .ColorScheme-PositiveText { color:#4caf50; } .ColorScheme-NegativeText { color:#f44336; }
  </style>
 </defs>
 <path style="fill:currentColor" class="ColorScheme-Text" d="M 13.363281,4.0000538 A 0.99995354,0.99995354 0 0 0 12.542969,4.4863819 L 10.638672,7.66021 5.4414062,5.1035694 A 0.99995354,0.99995354 0 0 0 4.0214844,6.2012257 L 4.9882812,10.900444 A 0.99995354,0.99995354 0 0 0 5,11.027397 v 3.146484 a 3,3 0 0 1 1,-0.173828 3,3 0 0 1 1,0.175781 V 12.3731 l 4,1.693359 v 3.375 L 8.9589844,16.513725 A 3,3 0 0 1 9,17.000053 3,3 0 0 1 8.5742188,18.535209 l 2.8906252,1.316406 a 0.99995354,0.99995354 0 0 0 0.707031,0.128907 0.99995354,0.99995354 0 0 0 0.08594,-0.01758 l 0.01172,-0.0039 5.988281,-1.595703 A 0.99995354,0.99995354 0 0 0 19,17.396537 v -5.283203 l 1.910156,-4.1992177 a 0.99995354,0.99995354 0 0 0 -0.55664,-1.3496094 l -6.59961,-2.5 A 0.99995354,0.99995354 0 0 0 13.363281,4.0000538 Z M 13.828125,6.2305226 18.648438,8.0566944 17.490234,10.603569 12.6875,8.6152884 A 0.99995354,0.99995354 0 0 0 12.482422,8.4707574 Z M 6.3886719,7.7969288 8.9960938,9.0801324 6.7675781,9.6406784 Z m 6.0781251,2.8925772 2.355469,0.974609 -2.050782,0.515626 z m -2.023438,0.08984 0.195313,0.962892 -1.5000001,-0.634766 z M 17,13.179741 v 3.449218 l -4,1.064453 v -3.509765 z"/>
 <circle style="fill:currentColor" class="ColorScheme-Highlight" cx="6" cy="17" r="2"/>
</svg>

<svg xmlns="http://www.w3.org/2000/svg" width="24" height="24"><defs><style id="current-color-scheme" type="text/css"></style></defs><path style="fill:currentColor;color:#323a41" d="M13.363 4a1 1 0 0 0-.82.486L10.639 7.66 5.44 5.104A1 1 0 0 0 4.021 6.2l.967 4.7a1 1 0 0 0 .012.126v3.147A3 3 0 0 1 6 14a3 3 0 0 1 1 .176v-1.803l4 1.693v3.375l-2.041-.927A3 3 0 0 1 9 17a3 3 0 0 1-.426 1.535l2.89 1.317a1 1 0 0 0 .708.129 1 1 0 0 0 .086-.018l.012-.004 5.988-1.596a1 1 0 0 0 .742-.966v-5.284l1.91-4.199a1 1 0 0 0-.556-1.35l-6.6-2.5a1 1 0 0 0-.39-.064zm.465 2.23 4.82 1.827-1.158 2.547-4.802-1.989a1 1 0 0 0-.206-.144zm-7.44 1.567L8.997 9.08l-2.228.56zm6.079 2.893 2.355.974-2.05.516zm-2.024.09.196.962-1.5-.635zM17 13.18v3.449l-4 1.064v-3.51z"/><circle style="fill:currentColor;color:#4285f4" cx="6" cy="17" r="2"/></svg>
